svgs/sharp-light/road.svg

<svg xmlns="http://www.w3.org/2000/svg" viewBox="0 0 576 512"><!--! Font Awesome Pro 6.6.0 by @fontawesome - https://fontawesome.com License - https://fontawesome.com/license (Commercial License) Copyright 2024 Fonticons, Inc. --><path d="M42.4 448L272 448l0-48 0-16 32 0 0 16 0 48 229.6 0L423.9 64 304 64l0 48 0 16-32 0 0-16 0-48L152.1 64 42.4 448zM304 32l144 0L566.9 448l9.1 32-33.3 0L304 480l-32 0L33.3 480 0 480l9.1-32L128 32l144 0 32 0zm0 176l0 96 0 16-32 0 0-16 0-96 0-16 32 0 0 16z"/></svg>

<svg xmlns="http://www.w3.org/2000/svg" viewBox="0 0 576 512"><!--! Font Awesome Pro 6.4.2 by @fontawesome - https://fontawesome.com License - https://fontawesome.com/license (Commercial License) Copyright 2023 Fonticons, Inc. --><path d="M42.4 448H272V400 384h32v16 48H533.6L423.9 64H304v48 16H272V112 64H152.1L42.4 448zM304 32H448L566.9 448l9.1 32H542.7 304 272 33.3 0l9.1-32L128 32H272h32zm0 176v96 16H272V304 208 192h32v16z"/></svg>
